X:21
T:Reel de L'enfant
C:Joseph Allard
M:2/4
L:1/16
Z:abc by Bruce Osborne - bosborne@kos.net
K:G
gfgb afdg|ecdc BGBd|gfgb agfd|egfa g2e2|!
gfgb afdg|ecdc BGBd|bgaf gedB|ceAc BGG2:|!
|:GDB,D DGBG|cGBG AGAB|GDB,D DGBG|ceAc BGG2|!
GDB,D DGBG|cGBG AGAB|GDB,D DGBG|ceAc BGG2:|!
